assets/features/channel/europe-and-america/payU.svg

<svg width="80" height="80" viewBox="0 0 80 80" fill="none" xmlns="http://www.w3.org/2000/svg">
<rect width="80" height="80" rx="8" fill="#BCCF03"/>
<path d="M60.5551 36.5475C60.1598 36.5475 59.8963 36.2838 59.8963 35.8883V32.9878H59.6327C58.1174 32.9878 57.5904 33.2515 57.5904 34.6358V37.8659V38.5251V38.591V43.1395C57.5904 43.6669 57.4586 44.1283 57.261 44.4579C56.8657 45.1171 56.0092 45.3808 54.7575 45.3808C53.4398 45.3808 52.6492 45.1171 52.2539 44.4579C52.0563 44.1283 51.9245 43.6669 51.9245 43.1395V38.6569V38.591V37.8659V34.6358C51.9245 33.2515 51.3975 32.9878 49.8822 32.9878H49.421C47.9057 32.9878 47.3787 33.2515 47.3787 34.6358V43.1395C47.3787 44.5238 47.7081 45.6445 48.301 46.5674C49.421 48.3472 51.661 49.336 54.8233 49.336C57.9857 49.336 60.2257 48.3472 61.3457 46.5674C61.9386 45.6445 62.268 44.4579 62.268 43.1395V36.5475H60.5551Z" fill="#FFFEFF"/>
<path d="M65.0354 28.373H67.5389C67.8024 28.373 68.0001 28.5708 68.0001 28.8345V31.3395C68.0001 31.6031 67.8024 31.8009 67.5389 31.8009H65.0354C64.7719 31.8009 64.5742 31.6031 64.5742 31.3395V28.8345C64.5742 28.5708 64.7719 28.373 65.0354 28.373Z" fill="#FFFEFF"/>
<path d="M62.5316 26H64.2445C64.4421 26 64.5739 26.1318 64.5739 26.3296V28.0435C64.5739 28.2413 64.4421 28.3731 64.2445 28.3731H62.5316C62.3339 28.3731 62.2021 28.2413 62.2021 28.0435V26.3296C62.2021 26.1318 62.3998 26 62.5316 26Z" fill="#FFFEFF"/>
<path d="M18.3906 32.9878H14.767C12.8565 32.9878 12 33.8448 12 35.7564V48.1495C12 48.8746 12.2635 49.1383 12.9882 49.1383H13.2518C13.9765 49.1383 14.24 48.8746 14.24 48.1495V43.3373H18.3906C22.08 43.3373 23.8588 41.6893 23.8588 38.1296C23.8588 34.5699 22.08 32.9878 18.3906 32.9878ZM21.6188 38.1296C21.6188 40.1731 21.0917 41.2278 18.3906 41.2278H14.24V36.0201C14.24 35.295 14.5035 35.0313 15.2282 35.0313H18.3906C20.4329 35.0972 21.6188 35.5587 21.6188 38.1296Z" fill="#FFFEFF"/>
<path d="M28.4704 36.5469C27.0209 36.5469 26.1645 36.7446 25.8351 36.8106C25.2421 36.9424 24.9786 37.0742 24.9786 37.7994V37.9971C24.9786 38.2608 25.0445 38.4586 25.1104 38.5904C25.2421 38.7222 25.3739 38.7882 25.5715 38.7882C25.7033 38.7882 25.7692 38.7882 25.9668 38.7222C26.2962 38.6563 27.4162 38.4586 28.6021 38.4586C30.7762 38.4586 31.6327 39.0518 31.6327 40.5021V41.8205H28.9315C25.4398 41.8205 23.7927 43.0071 23.7927 45.512C23.7927 48.017 25.5057 49.3354 28.5362 49.3354C32.1598 49.3354 33.8068 48.0829 33.8068 45.3143V40.5021C33.7409 37.8653 32.028 36.5469 28.4704 36.5469ZM31.6327 43.5344V45.2484C31.6327 46.6327 31.1056 47.4237 28.4704 47.4237C26.7574 47.4237 25.901 46.8304 25.901 45.512C25.901 44.1277 26.7574 43.5344 28.9315 43.5344H31.6327Z" fill="#FFFEFF"/>
<path d="M45.7317 37.1401C45.6 36.9424 45.2705 36.9424 45.007 36.9424H44.8094C44.0847 36.9424 43.8211 37.1401 43.6235 37.8653L41.5811 46.3031C41.3176 47.3578 40.9882 47.5555 40.3953 47.5555C39.6706 47.5555 39.3411 47.3578 39.0776 46.3031L36.7717 37.8653C36.5741 37.1401 36.3106 36.9424 35.5859 36.9424H35.3882C35.1247 36.9424 34.7953 36.9424 34.6635 37.1401C34.5318 37.3379 34.5318 37.6016 34.6635 37.9312L36.9694 46.4349C37.4306 48.0829 37.8917 49.4013 39.8682 49.4013C40.1976 49.4013 40.527 49.3354 40.8564 49.2695C40.2635 51.1152 39.6706 51.9063 37.8917 52.104C37.5623 52.104 37.2988 52.17 37.167 52.3677C37.0353 52.5655 37.0353 52.8292 37.1012 53.0269L37.167 53.2247C37.2988 53.7521 37.4306 54.0157 38.0235 54.0157C38.0894 54.0157 38.1553 54.0157 38.2212 54.0157C40.8564 53.818 42.24 52.4336 43.0964 49.1376L45.9294 37.9312C45.7976 37.6016 45.8635 37.272 45.7317 37.1401Z" fill="#FFFEFF"/>
<path d="M63.9153 31.8672H60.5553C60.16 31.8672 59.8965 32.1309 59.8965 32.5264V32.9878H60.16C61.6753 32.9878 62.2024 33.2515 62.2024 34.6358V36.6134H63.9153C64.3106 36.6134 64.5741 36.3498 64.5741 35.9542V32.5264C64.5741 32.1309 64.3106 31.8672 63.9153 31.8672Z" fill="#FFFEFF"/>
</svg>

<svg xmlns="http://www.w3.org/2000/svg" width="80" height="80" fill="none" viewBox="0 0 80 80"><rect width="80" height="80" fill="#bccf03" rx="8"/><path fill="#fffeff" d="M60.555 36.548c-.395 0-.659-.264-.659-.66v-2.9h-.263c-1.516 0-2.043.264-2.043 1.648v8.503c0 .528-.131.99-.329 1.319-.395.66-1.252.923-2.504.923-1.317 0-2.108-.264-2.503-.923-.198-.33-.33-.791-.33-1.319v-8.503c0-1.385-.526-1.648-2.042-1.648h-.461c-1.515 0-2.042.264-2.042 1.648v8.503c0 1.385.33 2.505.922 3.428 1.12 1.78 3.36 2.769 6.522 2.769s5.403-.989 6.523-2.769c.593-.922.922-2.11.922-3.428v-6.592zm4.48-8.175h2.504a.45.45 0 0 1 .461.461v2.506a.45.45 0 0 1-.461.46h-2.504a.45.45 0 0 1-.46-.46v-2.506a.45.45 0 0 1 .46-.461M62.532 26h1.713c.197 0 .329.132.329.33v1.714c0 .197-.132.33-.33.33h-1.712c-.198 0-.33-.133-.33-.33V26.33c0-.198.198-.33.33-.33M18.39 32.988h-3.623c-1.91 0-2.767.857-2.767 2.768V48.15c0 .725.264.988.988.988h.264c.724 0 .988-.263.988-.988v-4.813h4.15c3.69 0 5.469-1.648 5.469-5.207s-1.779-5.142-5.468-5.142m3.229 5.142c0 2.043-.527 3.098-3.228 3.098H14.24V36.02c0-.725.264-.989.988-.989h3.163c2.042.066 3.228.528 3.228 3.099m6.851-1.583c-1.45 0-2.305.198-2.635.264-.593.131-.856.263-.856.988v.198c0 .264.066.462.131.593a.6.6 0 0 0 .462.198c.131 0 .197 0 .395-.066.33-.066 1.45-.263 2.635-.263 2.174 0 3.03.593 3.03 2.043v1.319h-2.7c-3.492 0-5.14 1.186-5.14 3.691s1.714 3.823 4.744 3.823c3.624 0 5.27-1.252 5.27-4.02v-4.813c-.065-2.637-1.778-3.955-5.336-3.955m3.163 6.987v1.714c0 1.385-.527 2.176-3.163 2.176-1.713 0-2.569-.594-2.569-1.912 0-1.384.856-1.978 3.03-1.978zm14.099-6.394c-.132-.198-.462-.198-.725-.198h-.198c-.724 0-.988.198-1.185.923l-2.043 8.438c-.263 1.055-.593 1.253-1.186 1.253-.724 0-1.054-.198-1.317-1.253l-2.306-8.438c-.198-.725-.461-.923-1.186-.923h-.198c-.263 0-.593 0-.724.198q-.198.297 0 .791l2.305 8.504c.462 1.648.923 2.966 2.9 2.966.329 0 .658-.066.987-.132-.593 1.846-1.185 2.637-2.964 2.835-.33 0-.593.066-.725.264-.132.197-.132.461-.066.659l.066.198c.132.527.264.79.856.79h.198c2.635-.197 4.019-1.581 4.875-4.877L45.93 37.93c-.131-.33-.066-.659-.197-.79"/><path fill="#fffeff" d="M63.915 31.867h-3.36c-.395 0-.658.264-.658.66v.46h.263c1.515 0 2.042.264 2.042 1.649v1.977h1.713c.396 0 .66-.263.66-.659v-3.428c0-.395-.264-.659-.66-.659"/></svg>
